X:1
T: Miss Jenny Elliot's Strathspey
C:
R:Strathspey
Q: 128
K:D
M:4/4
L:1/16
|:F2|D3d d3d c3d e3g|f3d c3e B3e dcBA|D3d f3d c3d e3g|fa3 g3e d4 D2F2|
D3d d3d c3d e3g|f3d c3e B3e dcBA|D3d f3d c3d e3g|fa3 g3e d4 D2A2|
dcBA d3F G3F E3A|F3D G3D A3D B3D|dcBA d3F G3F E3A|Bg3 e3c d4 D3B|
dcBA d3F G3F E3A|F3D G3D A3D B3D|dcBA d3F G3F E3A|B3e dcBA d4 d2:|
